X: 18
T: Beatrice
C:Sam Rivers
L:1/4
M:4/4
K:F
"F"z>ccc | "Gbmaj7#11"fccB | "F"c>GFF | "Eb7"FG3 |
"Dm"z>AAA | "Ebmaj7#11"dA_eg | "Dm"f2"(Cm)"F>F | "Bbm7"(3c/B/c/-c- "Eb7"cF ||
"Am"z2 Az/c/ | "Bb"f3z/g/ | "Em7b5 A7"a4- | "Dm"a3g |
"Gm"z/f/zf>f- | "Gbmaj7#11"f2- f/c/B/c/- | "Fm"c z/B/ c/A/_A- | "Gb"A>F_AF :|


